X:721
T:Hopparedansen,
S:efter »Florsen» i Burs.
N:Denna dans kallas på gotländska även »Luddatäu» = Laditå.
O:Gotland, Burs
R:figurdans
M:2/4
L:1/8
K:C
(e>g) c z|(e>g) c z|(e>g) (c'>b)|(aB) B z|(d>f) B z|
(d>f) B z|(3fef (a>g)|(ec) c z::c' z b z|
a z g z|(3faf (3ege|(3dfd c z:|

